src/cards/clubs_8.svg

<svg version="1.1" id="Layer_1" xmlns="http://www.w3.org/2000/svg" xmlns:xlink="http://www.w3.org/1999/xlink" x="0px" y="0px"
	 width="100%" viewBox="0 0 336 496" enable-background="new 0 0 336 496" xml:space="preserve">
<path fill="currentColor" opacity="1.000000" stroke="none" 
	d="
M246.575058,397.687317 
	C245.072800,401.973145 243.771042,405.914642 244.563141,410.948151 
	C246.555237,409.125610 248.203140,407.608398 249.861374,406.102539 
	C256.998474,399.621124 266.529205,399.530457 272.703400,405.881409 
	C278.365906,411.705994 278.363464,421.583618 272.698029,427.606812 
	C266.739716,433.941376 256.827271,433.928253 249.868011,427.574738 
	C249.384048,427.132874 248.911209,426.678864 247.814011,426.738586 
	C249.272736,428.260834 250.760498,429.756439 252.185074,431.309998 
	C257.708801,437.333801 258.488129,445.363190 254.212723,451.927216 
	C250.607239,457.462677 243.165833,459.966156 236.525360,457.877716 
	C229.855118,455.779907 225.356079,449.268585 225.721954,442.192078 
	C225.938416,438.005157 227.791718,434.555664 230.583878,431.523346 
	C231.785461,430.218384 233.406647,429.246460 234.053528,427.352753 
	C222.756714,434.109711 215.046188,433.856476 209.218521,426.595184 
	C204.136810,420.263306 204.590439,411.302368 210.276733,405.691101 
	C217.281433,398.778809 224.430969,400.006897 238.581238,410.909912 
	C238.552734,403.674438 236.800201,397.557404 232.830597,392.042725 
	C231.886841,390.731628 230.266495,389.442993 231.092010,387.646912 
	C232.028412,385.609558 234.225876,386.095062 235.977600,386.060730 
	C240.137573,385.979218 244.307556,385.918060 248.460495,386.118164 
	C252.005646,386.288971 252.822495,388.012177 250.729218,391.029816 
	C249.311569,393.073486 248.056076,395.229675 246.575058,397.687317 
z"/>
<path fill="currentColor" opacity="1.000000" stroke="none" 
	d="
M106.909264,396.992065 
	C105.111992,401.487701 103.818390,405.693970 104.526566,411.035950 
	C106.830574,408.897614 108.590836,407.196625 110.422348,405.576141 
	C117.218994,399.562622 127.016487,399.803802 132.877869,406.100098 
	C138.455673,412.091766 138.283447,421.889221 132.496124,427.815094 
	C126.681305,433.769073 117.005493,433.886383 110.371208,428.074219 
	C109.664574,427.455139 109.001259,426.786652 108.073036,426.349640 
	C110.759087,430.432831 114.919258,433.417358 116.298080,438.414673 
	C118.298996,445.666687 115.302612,453.376526 108.923325,456.765076 
	C102.489143,460.182770 93.892097,458.567993 89.346436,453.087982 
	C84.557625,447.314789 84.430756,439.295441 89.151764,433.276245 
	C90.680420,431.327271 92.474640,429.586578 94.006218,427.464661 
	C89.896584,430.061157 85.899147,432.635254 80.718086,432.349487 
	C75.473106,432.060181 71.482407,429.828186 68.540764,425.620880 
	C64.193741,419.403473 64.841827,411.251831 70.088188,405.922699 
	C74.309937,401.634369 79.431129,400.529419 85.231491,401.690186 
	C90.794907,402.803497 93.855705,407.533173 98.639160,411.282837 
	C98.503510,403.618530 96.825615,397.410736 92.745132,391.894745 
	C91.778763,390.588379 90.216911,389.245941 91.156052,387.485443 
	C92.056313,385.797821 94.060226,386.120483 95.684654,386.093750 
	C99.845215,386.025146 104.017403,385.883453 108.166321,386.110718 
	C112.156120,386.329285 112.750336,387.824554 110.563324,391.192047 
	C109.387894,393.001984 108.242622,394.831451 106.909264,396.992065 
z"/>
<path fill="currentColor" opacity="1.000000" stroke="none" 
	d="
M181.066818,307.791595 
	C176.552689,313.841614 173.909958,320.106079 174.330124,327.607819 
	C176.946152,327.408478 177.882645,325.404205 179.237778,324.108734 
	C186.013763,317.631378 194.570938,316.834015 201.360153,322.177551 
	C207.407318,326.937012 208.689453,335.938232 204.312668,342.906067 
	C200.025558,349.731140 191.406982,351.637512 183.073563,347.601929 
	C182.533096,347.340210 182.000290,347.062683 180.957092,346.537231 
	C188.676590,358.546875 188.749878,366.148376 181.557449,372.328766 
	C175.556686,377.485199 166.825851,377.548767 160.999817,372.225647 
	C156.487381,368.102722 154.818649,362.894226 156.092300,356.825226 
	C157.274734,351.190979 162.079239,347.959869 165.096100,343.543549 
	C155.404724,351.110687 146.546585,351.718658 140.126083,345.133392 
	C134.413391,339.274078 134.192368,329.933197 139.621109,323.790924 
	C146.437302,316.078857 154.050644,317.136566 168.784134,328.511230 
	C168.297607,321.928009 167.304489,316.494293 164.200089,311.536011 
	C163.406265,310.268097 162.398163,309.130371 161.647354,307.840424 
	C160.326416,305.570923 160.716782,303.852417 163.642532,303.783020 
	C168.803467,303.660553 173.971313,303.675110 179.132675,303.791687 
	C181.552368,303.846313 182.414993,305.165344 181.066818,307.791595 
z"/>
<path fill="currentColor" opacity="1.000000" stroke="none" 
	d="
M111.050652,77.294395 
	C122.015831,70.450348 133.548538,74.281578 136.370270,85.417755 
	C137.999084,91.846062 135.525681,98.643517 130.308899,102.075516 
	C124.358391,105.990211 117.130234,105.819763 111.661751,101.472824 
	C109.473320,99.733223 107.510895,97.709305 104.577881,95.018867 
	C103.822685,102.351151 105.940369,107.818146 109.203224,113.065277 
	C110.271729,114.783592 112.981377,116.220848 111.499359,118.596619 
	C110.216187,120.653633 107.557274,119.884956 105.449883,119.948288 
	C102.454071,120.038322 99.450439,120.046165 96.455872,119.934975 
	C94.550781,119.864235 92.117271,120.585793 91.111137,118.320992 
	C90.244995,116.371300 92.024803,114.949081 93.091957,113.507309 
	C97.005211,108.220352 98.384789,102.184593 98.718132,95.304886 
	C96.328384,96.016655 95.225197,97.696892 93.887207,98.996384 
	C86.554543,106.118065 77.212494,106.798836 70.669754,100.643845 
	C64.670799,95.000397 64.009026,85.635902 69.165565,79.358681 
	C74.903885,72.373238 84.103500,71.807060 92.357246,77.927864 
	C92.830490,78.278816 93.323860,78.602631 94.612785,79.498581 
	C84.168091,65.079460 83.340042,57.989189 90.819603,51.400303 
	C96.872841,46.067890 106.489746,46.209820 112.270584,51.716888 
	C119.537735,58.639877 118.516251,66.761253 108.875946,78.435677 
	C109.949631,78.955307 110.176651,77.778587 111.050652,77.294395 
z"/>
<path fill="currentColor" opacity="1.000000" stroke="none" 
	d="
M89.334732,215.430237 
	C94.364220,210.430206 99.933922,208.545837 106.455475,210.790314 
	C112.553429,212.889023 115.902565,217.399887 116.848770,223.677597 
	C117.678436,229.182114 115.216499,233.636795 111.004723,238.463425 
	C116.427956,237.138519 120.729683,235.204880 125.378586,236.695160 
	C130.060822,238.196106 133.679199,240.773087 135.567505,245.500381 
	C138.304031,252.351181 136.768173,259.930054 131.139603,263.920166 
	C120.568192,271.414307 112.436607,266.161713 104.541336,257.111603 
	C103.732529,264.929321 105.994690,270.575256 109.483086,275.921753 
	C110.520691,277.512054 112.807045,278.884125 111.556549,281.088715 
	C110.370598,283.179504 107.934746,282.221222 106.038551,282.280396 
	C102.210045,282.399811 98.369843,282.416473 94.543503,282.257751 
	C90.527695,282.091217 89.767380,280.587524 92.203270,277.279022 
	C96.372658,271.616058 98.480682,265.391663 98.655632,257.302216 
	C95.298187,260.173676 92.890404,262.644226 90.095169,264.545044 
	C82.265015,269.869659 72.105499,267.407745 67.708778,259.333801 
	C63.254333,251.153854 66.507622,241.048813 75.080307,237.535934 
	C82.796074,234.374207 89.387482,236.719772 95.262848,242.766785 
	C88.130875,234.740067 81.163246,226.823868 89.334732,215.430237 
z"/>
<path fill="currentColor" opacity="1.000000" stroke="none" 
	d="
M152.723816,187.271698 
	C143.830658,187.137634 138.443375,183.255417 136.256546,175.731644 
	C134.368423,169.235565 137.243118,162.038803 143.151138,158.471054 
	C150.030624,154.316696 156.806351,155.637100 165.650848,163.514969 
	C164.285004,160.011703 162.114182,158.631805 160.471542,156.863174 
	C155.010101,150.982849 154.127457,142.840118 158.271149,136.642578 
	C161.994919,131.073044 169.816666,128.539474 176.439224,130.757690 
	C186.430222,134.104172 190.216812,146.366699 183.850449,154.887665 
	C182.666718,156.471985 181.271835,157.898560 180.102676,159.691635 
	C184.243042,157.729813 188.271149,155.570343 193.043686,156.273376 
	C197.915451,156.991043 201.912003,159.128891 204.530975,163.391693 
	C208.635635,170.072693 207.443939,178.284103 201.729752,183.349350 
	C194.514130,189.745529 187.987808,188.517044 174.878723,178.097107 
	C173.379181,182.071747 174.881088,185.577927 175.968155,189.066467 
	C176.917175,192.111954 178.642624,194.769379 180.452011,197.390808 
	C182.871338,200.895920 182.311783,202.135559 178.214050,202.266006 
	C173.719589,202.409088 169.213547,202.404282 164.718872,202.262802 
	C160.342804,202.125031 159.816986,200.828934 162.357742,197.012848 
	C167.063614,189.944855 168.795502,184.531815 168.228134,177.961319 
	C163.036133,181.083740 159.662842,186.881607 152.723816,187.271698 
z"/>
<path fill="currentColor" opacity="1.000000" stroke="none" 
	d="
M208.279968,80.545135 
	C216.617523,71.113792 225.381882,71.359802 236.487183,81.958649 
	C234.407486,77.416626 231.125275,75.543266 229.088409,72.704338 
	C224.037521,65.664513 224.715225,56.876919 230.831528,51.444878 
	C236.757919,46.181496 245.799545,46.195896 251.833939,51.478325 
	C257.359253,56.315117 258.569305,65.095428 254.388962,71.431252 
	C252.756744,73.905090 250.692627,76.093956 248.919586,78.648972 
	C252.797440,75.808083 256.832825,73.453659 261.840576,73.708595 
	C266.799164,73.961029 270.830353,76.029129 273.817627,79.948746 
	C278.442200,86.016685 277.716003,95.251617 272.317047,100.460823 
	C265.233246,107.295624 257.783173,105.940834 244.423767,94.983078 
	C243.758408,102.353668 245.927536,108.317047 249.733322,113.869965 
	C250.647491,115.203812 252.386169,116.395561 251.654556,118.204895 
	C250.804550,120.307060 248.576523,119.840446 246.831696,119.884674 
	C242.838776,119.985901 238.835480,120.042992 234.847321,119.868523 
	C230.527283,119.679535 229.681778,118.067291 232.335968,114.604156 
	C236.673569,108.944496 238.480682,102.613792 238.707764,94.274010 
	C230.364166,103.255569 221.912247,109.389488 211.011749,100.817474 
	C205.172424,96.225502 204.384949,88.845062 208.279968,80.545135 
z"/>
<path fill="currentColor" opacity="1.000000" stroke="none" 
	d="
M253.524689,238.197800 
	C263.600616,234.166428 272.647369,237.518631 275.831879,246.153702 
	C279.021729,254.803162 274.822968,263.693115 266.048615,266.549927 
	C260.358948,268.402374 255.112152,267.244415 250.759628,263.177307 
	C248.961578,261.497162 247.727463,259.213470 245.502136,257.728699 
	C243.545837,264.827271 246.046844,270.374176 249.288864,275.762695 
	C250.273834,277.399811 252.653854,278.748230 251.598846,280.911530 
	C250.412354,283.344391 247.731628,282.162262 245.700516,282.265381 
	C242.377441,282.434052 239.037186,282.372650 235.708328,282.271576 
	C234.133118,282.223816 232.159256,282.874756 231.204514,281.021881 
	C230.270187,279.208618 231.738907,277.941376 232.690506,276.596863 
	C236.534592,271.165527 238.593887,265.170166 238.613876,257.946930 
	C235.354095,258.919769 233.968613,261.529144 231.909775,263.225983 
	C226.684601,267.532379 220.894058,268.718475 214.687057,265.848419 
	C208.867279,263.157379 205.878281,258.276489 205.762375,251.926254 
	C205.645813,245.538666 208.615936,240.746567 214.337784,237.814819 
	C219.956345,234.936005 226.851883,235.828537 231.601303,239.953629 
	C232.684601,240.894516 233.725235,241.884552 235.295273,243.317108 
	C234.525467,239.964996 232.267197,238.684967 230.631119,236.937454 
	C225.353516,231.300354 224.215347,224.455597 227.534653,218.114716 
	C230.440903,212.562927 237.401917,209.020905 243.457504,210.012589 
	C250.698196,211.198349 255.551147,216.026993 256.771973,223.612320 
	C257.529053,228.316360 255.973312,232.465958 252.880783,236.032272 
	C250.817230,238.411942 248.339417,240.448135 246.424164,244.118210 
	C249.112839,241.843262 251.155472,240.114944 253.524689,238.197800 
z"/>
<path fill="currentColor" opacity="1.000000" stroke="none" 
	d="
M314.513062,489.234985 
	C312.247437,489.285919 310.408478,489.400513 308.585236,489.278931 
	C303.799255,488.959747 299.599396,487.266449 297.871521,482.479736 
	C295.954803,477.169952 298.571350,473.176849 302.897247,470.044403 
	C302.481628,469.510498 302.269867,469.024719 301.899384,468.794678 
	C296.845032,465.657562 294.323883,461.352264 295.845001,455.323486 
	C297.028107,450.634186 302.389099,447.061981 308.717468,446.727112 
	C312.200195,446.542847 315.686859,446.469818 319.089111,447.679352 
	C323.103058,449.106293 326.258728,451.391632 327.140076,455.753174 
	C328.045624,460.234497 326.457642,463.935516 322.872223,466.770325 
	C322.237396,467.272278 321.598114,467.768585 320.985504,468.248199 
	C327.878021,480.258301 326.312408,485.540680 314.513062,489.234985 
M305.399414,459.241791 
	C306.778503,461.455292 308.834412,462.824310 311.159821,463.855988 
	C312.774811,464.572479 314.365570,466.060669 316.153778,464.315765 
	C318.665863,461.864471 319.582977,458.831726 317.994629,455.675262 
	C316.343109,452.393158 313.292419,450.764496 309.664917,451.724670 
	C306.402191,452.588287 303.921356,454.545105 305.399414,459.241791 
M311.295013,473.456085 
	C307.774719,471.482391 306.941742,474.348389 305.964935,476.563507 
	C304.616913,479.620514 305.585449,482.111450 308.437195,483.760162 
	C311.108276,485.304474 313.646118,484.824463 315.623505,482.546387 
	C317.515411,480.366699 316.720459,478.180634 314.952759,476.321686 
	C314.050354,475.372620 312.910675,474.649078 311.295013,473.456085 
z"/>
<path fill="currentColor" opacity="1.000000" stroke="none" 
	d="
M35.494446,16.815557 
	C46.954945,20.582142 48.358219,26.838261 40.092628,36.266842 
	C40.501144,36.715111 40.850651,37.297482 41.362591,37.629074 
	C45.657906,40.411232 48.059040,44.223396 47.122616,49.412186 
	C46.141251,54.849979 42.198856,57.453453 37.143188,58.653908 
	C32.692703,59.710663 28.233265,59.815483 23.846825,58.367756 
	C14.513736,55.287415 12.422965,46.657200 19.323326,39.716610 
	C20.014870,39.021034 20.935266,38.552986 21.786922,37.952946 
	C20.244884,35.266823 18.572901,33.283768 17.898039,31.005363 
	C15.833790,24.036236 20.232721,18.015171 28.082417,16.869471 
	C30.366875,16.536045 32.735661,16.780403 35.494446,16.815557 
M30.759487,54.526875 
	C34.795002,54.259838 38.103256,53.099892 37.622562,48.122555 
	C37.346119,45.260113 30.540272,40.454456 27.751848,40.928871 
	C25.279261,41.349548 23.419472,45.970783 24.337034,49.375935 
	C25.128139,52.311798 27.417965,53.517410 30.759487,54.526875 
M31.529119,32.517815 
	C35.077888,34.019367 35.968338,31.390654 36.628986,28.978279 
	C37.449112,25.983597 36.790138,23.334829 33.615021,21.952627 
	C31.035734,20.829805 28.532494,21.192558 26.945999,23.495094 
	C25.320797,25.853807 26.084745,28.281372 28.111868,30.191536 
	C28.943127,30.974833 29.992287,31.526888 31.529119,32.517815 
z"/>
<path fill="currentColor" opacity="1.000000" stroke="none" 
	d="
M299.983887,420.262268 
	C293.906555,417.738983 291.812500,413.138824 294.256958,408.466034 
	C296.807281,403.590851 302.307281,403.184509 309.340668,407.417877 
	C309.435944,403.879517 306.987885,401.297272 305.915405,397.879791 
	C309.365417,395.916351 312.795319,396.567780 316.464050,397.317627 
	C316.496429,401.064758 312.751801,403.511566 313.695892,407.706848 
	C317.558075,404.665100 321.673218,402.690765 326.162354,405.866425 
	C329.022308,407.889618 329.913452,410.989716 329.142822,414.295715 
	C327.942657,419.444733 323.703857,420.447784 319.249420,420.650696 
	C319.317719,430.313965 317.304199,433.376923 311.138947,433.309387 
	C305.163727,433.243958 303.140137,429.920074 303.645966,420.980225 
	C302.701721,420.051239 301.464111,420.488007 299.983887,420.262268 
z"/>
<path fill="currentColor" opacity="1.000000" stroke="none" 
	d="
M24.248791,77.761215 
	C27.609221,73.441208 31.582067,72.254700 35.205921,74.187019 
	C38.810776,76.109215 39.837921,80.106125 38.045483,85.695175 
	C42.371616,85.609116 46.561535,86.033958 48.097343,90.939621 
	C49.099384,94.140320 48.790501,97.311363 45.912750,99.544304 
	C41.633251,102.864906 37.597988,101.098740 33.748688,98.275024 
	C32.500488,102.095482 36.289051,104.195229 36.137501,107.663826 
	C32.943695,108.783371 29.840681,108.671089 26.493063,107.616325 
	C26.722246,104.241936 29.629833,101.918663 29.295845,98.220573 
	C25.066069,100.760124 20.763802,103.480370 16.339148,99.164085 
	C13.872059,96.757439 13.121604,93.758987 14.609688,90.483421 
	C16.575315,86.156693 20.278997,85.411736 24.724417,85.983398 
	C23.756521,83.293724 23.215103,80.745163 24.248791,77.761215 
z"/>
</svg>

<svg xmlns="http://www.w3.org/2000/svg" viewBox="0 0 336 496" xml:space="preserve"><path fill="currentColor" d="M246.575 397.687c-1.502 4.286-2.804 8.228-2.012 13.261 1.992-1.822 3.64-3.34 5.298-4.845 7.137-6.482 16.668-6.573 22.842-.222 5.663 5.825 5.66 15.703-.005 21.726-5.958 6.334-15.87 6.321-22.83-.032-.484-.442-.957-.896-2.054-.836 1.459 1.522 2.946 3.017 4.371 4.571 5.524 6.024 6.303 14.053 2.028 20.617-3.606 5.536-11.047 8.04-17.688 5.95-6.67-2.097-11.169-8.608-10.803-15.685.216-4.187 2.07-7.636 4.862-10.669 1.201-1.305 2.823-2.277 3.47-4.17-11.297 6.757-19.008 6.503-24.835-.758-5.082-6.332-4.629-15.293 1.058-20.904 7.004-6.912 14.154-5.684 28.304 5.219-.028-7.236-1.78-13.353-5.75-18.867-.944-1.311-2.565-2.6-1.739-4.396.936-2.037 3.134-1.552 4.886-1.586 4.16-.082 8.33-.143 12.482.057 3.546.171 4.362 1.894 2.27 4.912-1.418 2.043-2.674 4.2-4.155 6.657zM106.91 396.992c-1.798 4.496-3.092 8.702-2.383 14.044 2.304-2.138 4.064-3.84 5.895-5.46 6.797-6.013 16.594-5.772 22.456.524 5.578 5.992 5.405 15.79-.382 21.715-5.815 5.954-15.49 6.071-22.125.26-.706-.62-1.37-1.288-2.298-1.725 2.686 4.083 6.846 7.067 8.225 12.065 2.001 7.252-.995 14.962-7.375 18.35-6.434 3.418-15.03 1.803-19.577-3.677-4.788-5.773-4.915-13.793-.194-19.812 1.528-1.949 3.323-3.69 4.854-5.811-4.11 2.596-8.107 5.17-13.288 4.884-5.245-.289-9.236-2.52-12.177-6.728-4.347-6.218-3.7-14.37 1.547-19.698 4.222-4.289 9.343-5.394 15.143-4.233 5.564 1.113 8.625 5.843 13.408 9.593-.135-7.664-1.813-13.872-5.894-19.388-.966-1.307-2.528-2.65-1.589-4.41.9-1.687 2.904-1.365 4.529-1.391 4.16-.069 8.332-.21 12.481.017 3.99.218 4.584 1.714 2.397 5.081a293.36 293.36 0 0 0-3.654 5.8zM181.067 307.792c-4.514 6.05-7.157 12.314-6.737 19.816 2.616-.2 3.553-2.204 4.908-3.5 6.776-6.477 15.333-7.274 22.122-1.93 6.047 4.759 7.33 13.76 2.953 20.728-4.287 6.825-12.906 8.732-21.24 4.696-.54-.262-1.073-.54-2.116-1.065 7.72 12.01 7.793 19.611.6 25.792-6 5.156-14.731 5.22-20.557-.103-4.513-4.123-6.181-9.332-4.908-15.4 1.183-5.635 5.987-8.866 9.004-13.282-9.691 7.567-18.55 8.175-24.97 1.59-5.713-5.86-5.934-15.2-.505-21.343 6.816-7.712 14.43-6.654 29.163 4.72-.486-6.583-1.48-12.017-4.584-16.975-.794-1.268-1.802-2.406-2.553-3.696-1.32-2.27-.93-3.988 1.996-4.057 5.16-.122 10.328-.108 15.49.009 2.42.054 3.282 1.373 1.934 4zM111.05 77.294c10.966-6.844 22.499-3.012 25.32 8.124 1.63 6.428-.844 13.226-6.061 16.658-5.95 3.914-13.179 3.744-18.647-.603-2.189-1.74-4.151-3.764-7.084-6.454-.755 7.332 1.362 12.8 4.625 18.046 1.069 1.719 3.778 3.156 2.296 5.532-1.283 2.057-3.942 1.288-6.05 1.351-2.995.09-5.999.098-8.993-.013-1.905-.07-4.339.65-5.345-1.614-.866-1.95.914-3.372 1.981-4.814 3.913-5.287 5.293-11.322 5.626-18.202-2.39.712-3.493 2.392-4.83 3.691-7.333 7.122-16.676 7.803-23.218 1.648-6-5.644-6.661-15.008-1.504-21.285 5.738-6.986 14.938-7.552 23.191-1.431.473.35.967.675 2.256 1.57C84.168 65.08 83.34 57.99 90.82 51.4c6.053-5.332 15.67-5.19 21.45.317 7.268 6.923 6.246 15.044-3.394 26.719 1.074.52 1.3-.657 2.175-1.142zM89.335 215.43c5.03-5 10.599-6.884 17.12-4.64 6.098 2.099 9.448 6.61 10.394 12.888.83 5.504-1.633 9.959-5.844 14.785 5.423-1.324 9.725-3.258 14.374-1.768 4.682 1.501 8.3 4.078 10.189 8.805 2.736 6.851 1.2 14.43-4.428 18.42-10.572 7.494-18.703 2.242-26.599-6.808-.808 7.817 1.454 13.463 4.942 18.81 1.038 1.59 3.324 2.962 2.074 5.167-1.186 2.09-3.622 1.132-5.518 1.191-3.829.12-7.67.136-11.495-.022-4.016-.167-4.777-1.67-2.34-4.979 4.169-5.663 6.277-11.887 6.452-19.977-3.358 2.872-5.766 5.342-8.56 7.243-7.831 5.325-17.99 2.863-22.387-5.211-4.455-8.18-1.201-18.285 7.371-21.798 7.716-3.162 14.307-.816 20.183 5.23-7.132-8.026-14.1-15.942-5.928-27.336zM152.724 187.272c-8.893-.134-14.28-4.017-16.467-11.54-1.889-6.496.986-13.693 6.894-17.26 6.88-4.155 13.655-2.835 22.5 5.043-1.366-3.503-3.537-4.883-5.18-6.652-5.46-5.88-6.344-14.023-2.2-20.22 3.724-5.57 11.546-8.104 18.168-5.885 9.991 3.346 13.778 15.609 7.411 24.13-1.183 1.584-2.578 3.01-3.747 4.804 4.14-1.962 8.168-4.122 12.94-3.419 4.872.718 8.869 2.856 11.488 7.119 4.105 6.68 2.913 14.892-2.801 19.957-7.216 6.397-13.742 5.168-26.851-5.252-1.5 3.975.002 7.48 1.09 10.97.948 3.045 2.674 5.702 4.483 8.324 2.42 3.505 1.86 4.745-2.238 4.875-4.494.143-9 .138-13.495-.003-4.376-.138-4.902-1.434-2.361-5.25 4.706-7.068 6.438-12.481 5.87-19.052-5.192 3.123-8.565 8.92-15.504 9.31zM208.28 80.545c8.338-9.431 17.102-9.185 28.207 1.414-2.08-4.542-5.362-6.416-7.399-9.255-5.05-7.04-4.373-15.827 1.744-21.26 5.926-5.263 14.968-5.248 21.002.034 5.525 4.837 6.735 13.617 2.555 19.953-1.632 2.474-3.696 4.663-5.47 7.218 3.878-2.84 7.914-5.195 12.922-4.94 4.958.252 8.99 2.32 11.977 6.24 4.624 6.068 3.898 15.303-1.501 20.512-7.084 6.835-14.534 5.48-27.893-5.478-.666 7.37 1.504 13.334 5.31 18.887.913 1.334 2.652 2.526 1.92 4.335-.85 2.102-3.077 1.635-4.822 1.68-3.993.1-7.997.158-11.985-.016-4.32-.19-5.165-1.802-2.511-5.265 4.338-5.66 6.145-11.99 6.372-20.33-8.344 8.982-16.796 15.115-27.696 6.543-5.84-4.591-6.627-11.972-2.732-20.272zM253.525 238.198c10.076-4.032 19.122-.68 22.307 7.956 3.19 8.65-1.009 17.54-9.783 20.396-5.69 1.852-10.937.694-15.29-3.373-1.797-1.68-3.032-3.964-5.257-5.448-1.956 7.098.545 12.645 3.787 18.034.985 1.637 3.365 2.985 2.31 5.149-1.187 2.432-3.867 1.25-5.898 1.353-3.324.17-6.664.108-9.993.007-1.575-.048-3.549.603-4.503-1.25-.935-1.813.534-3.08 1.486-4.425 3.844-5.431 5.903-11.427 5.923-18.65-3.26.973-4.645 3.582-6.704 5.279-5.225 4.306-11.016 5.492-17.223 2.622-5.82-2.69-8.809-7.572-8.925-13.922-.116-6.387 2.854-11.18 8.576-14.111 5.618-2.879 12.514-1.986 17.263 2.139 1.084.94 2.124 1.93 3.694 3.363-.77-3.352-3.028-4.632-4.664-6.38-5.277-5.637-6.416-12.481-3.096-18.822 2.906-5.552 9.867-9.094 15.923-8.102 7.24 1.185 12.093 6.014 13.314 13.6.757 4.703-.799 8.853-3.891 12.42-2.064 2.379-4.542 4.415-6.457 8.085 2.689-2.275 4.731-4.003 7.1-5.92zM314.513 489.235c-2.266.05-4.105.166-5.928.044-4.786-.32-8.986-2.013-10.713-6.8-1.917-5.309.7-9.302 5.025-12.435-.415-.534-.627-1.02-.998-1.25-5.054-3.136-7.575-7.442-6.054-13.47 1.183-4.69 6.544-8.262 12.872-8.597 3.483-.184 6.97-.257 10.372.952 4.014 1.427 7.17 3.713 8.051 8.074.906 4.481-.682 8.183-4.268 11.017-.635.502-1.274.999-1.886 1.478 6.892 12.01 5.326 17.293-6.473 20.987m-9.114-29.993c1.38 2.213 3.435 3.582 5.76 4.614 1.616.716 3.207 2.205 4.995.46 2.512-2.452 3.429-5.484 1.84-8.64-1.65-3.283-4.702-4.912-8.33-3.951-3.262.863-5.743 2.82-4.265 7.517m5.896 14.214c-3.52-1.974-4.353.892-5.33 3.108-1.348 3.057-.38 5.547 2.472 7.196 2.671 1.544 5.21 1.064 7.187-1.214 1.891-2.18 1.096-4.365-.671-6.224-.903-.95-2.042-1.673-3.658-2.866zM35.494 16.816c11.46 3.766 12.864 10.022 4.599 19.45.408.45.758 1.031 1.27 1.363 4.295 2.782 6.696 6.594 5.76 11.783-.982 5.438-4.924 8.041-9.98 9.242-4.45 1.057-8.91 1.161-13.296-.286-9.333-3.08-11.424-11.71-4.524-18.651.692-.696 1.612-1.164 2.464-1.764-1.542-2.686-3.214-4.67-3.889-6.948-2.064-6.969 2.335-12.99 10.184-14.136 2.285-.333 4.654-.089 7.412-.053m-4.735 37.71c4.036-.266 7.344-1.426 6.864-6.403-.277-2.863-7.083-7.669-9.871-7.194-2.473.42-4.333 5.042-3.415 8.447.791 2.936 3.081 4.141 6.422 5.15m.77-22.008c3.549 1.501 4.44-1.127 5.1-3.54.82-2.994.161-5.643-3.014-7.025-2.58-1.123-5.083-.76-6.669 1.542-1.625 2.359-.861 4.786 1.166 6.697.831.783 1.88 1.335 3.417 2.326zM299.984 420.262c-6.077-2.523-8.171-7.123-5.727-11.796 2.55-4.875 8.05-5.281 15.084-1.048.095-3.538-2.353-6.12-3.426-9.538 3.45-1.964 6.88-1.312 10.549-.562.032 3.747-3.712 6.194-2.768 10.389 3.862-3.042 7.977-5.016 12.466-1.84 2.86 2.023 3.751 5.123 2.98 8.429-1.2 5.149-5.438 6.152-9.893 6.355.069 9.663-1.945 12.726-8.11 12.658-5.975-.065-7.999-3.389-7.493-12.329-.944-.929-2.182-.492-3.662-.718zM24.249 77.761c3.36-4.32 7.333-5.506 10.957-3.574 3.605 1.922 4.632 5.92 2.84 11.508 4.326-.086 8.516.339 10.051 5.245 1.002 3.2.694 6.371-2.184 8.604-4.28 3.32-8.315 1.555-12.164-1.269-1.249 3.82 2.54 5.92 2.389 9.389-3.194 1.12-6.297 1.007-9.645-.048.23-3.374 3.137-5.697 2.803-9.395-4.23 2.54-8.532 5.26-12.957.943-2.467-2.407-3.217-5.405-1.73-8.68 1.966-4.327 5.67-5.072 10.115-4.5-.967-2.69-1.509-5.239-.475-8.223z"/></svg>
